X: 19086
T: Irish Girl, The
R: slip jig
M: 9/8
K: Amixolydian
|:c2A AEA ABA|cBc Ace ded|c2A AEA ABA|BGB gfe ded:|
|:cde efd e3|cae efd ged|cae efd efg|1 agf gfe dBG:|2 agf gfe ded||

